!! "Kwajong's Lament I", (art song) No. 119 from Jonathan Condit,
!! 'Music of the Korean Renaissance; Songs and dances of the fifteenth century',
!! London: Cambridge University Press, 1984, ISBN 0 521 24399 8; pp.290-295
!! pluck	wind	voice
!! str.
**kern	**kern	**kern
*M36/16	*M36/16	*M36/16
=1	=1	=1
8.r	8.r	8.r
8.B-	4.b-	8.b-
{32c	.	{8cc
32B-}	.	.
{32B-	.	.
[32G	.	.
16G}]	.	[16b-
8F	[8.b-	4.b-}]
16B-	.	.
16B-	4.b-]	.
8G	.	.
{32c	.	[8.b-
32B-}	.	.
{32B-	.	.
[32G	.	.
16G}]	.	.
8.B-	[{4.b-	4.b-_
4.B-	.	.
.	8.b-_	8.b-_
4.B-	4.b-_	4.b-_
8.B-	16b-]	8.b-_
.	16ff'}	.
.	16r	.
=2	=2	=2
8.B-	8.r	8.b-]
8.c	{8.cc	8.cc
8.e-	8.ee-}	8.ee-
8.c	{8.ee-	4.ee-
8e-	8cc	.
16c	32ee-	.
.	32cc	.
8B-	16b-	{8.cc
.	8cc}	.
16e-	.	.
8c	{4.ee-	8.ee-
16B-	.	.
8.c	.	8.cc
8.B-	8cc	[8.b-
.	16ee-'}	.
8e-	[4.b-	4.b-_
16c	.	.
8e-	.	.
16c	.	.
8B-	8.b-_	8.b-_
32c	.	.
32B-	.	.
=3	=3	=3
8.B-	8.b-]	8.b-}]
8.B-	{8.cc	8.cc
8c	8.b-}	[{8.b-
16B-	.	.
8F	{8.b-	8.b-]
16B-	.	.
16B-	8cc	8.g
8G	.	.
.	16b-	.
8F	8.g}	8.f}
16B-	.	.
8.G	{8.g	{8.g
8.c	8.b-}	[4.b-
8.B-	[8.b-	.
8e-	4.b-]	4.b-_
16c	.	.
8e-	.	.
16c	.	.
8B-	{8.b-	8.b-}]
32c	.	.
32B-	.	.
=4	=4	=4
8.B-	[4.b-	8.b-
4.B-	.	8.r
.	8b-]	8.r
.	16ee-'}	.
16B-	4.r	4.r
16c	.	.
16B-	.	.
16B-	.	.
8G	.	.
8F	8.r	8.r
16B-	.	.
8.B-	4.r	4.r
4.B-	.	.
.	8.r	8.r
4.B-	4.r	4.r
8.B-	8.r	8.r
=5	=5	=5
8.B-	8.r	8.r
8.c	{8.cc	8.cc
8.e-	8.ee-}	[{8.ee-
8.c	{8.ee-	4.ee-]
8e-	8cc	.
16c	32ee-	.
.	32cc	.
8B-	16b-	8.cc}
.	8cc}	.
16e-	.	.
8c	{4.ee-	{8.ee-
16B-	.	.
8.c	.	8.cc
8.B-	8cc	8.b-}
.	16ee-'}	.
8e-	[4.b-	[4.b-
16c	.	.
8e-	.	.
16c	.	.
8B-	8.b-_	8.b-_
32c	.	.
32B-	.	.
=6	=6	=6
8.B-	8.b-]	8.b-]
8.c	{8.cc	8.cc
8.e-	8.ee-}	{8.ee-
8e-	{8.ee-	8.cc
16c	.	.
8.B-	8cc	4.b-}
.	32ee-	.
.	32cc	.
8c	8.b-}	.
16B-	.	.
8B-	{16b-	{16b-
.	32ee-	8cc
.	32cc	.
16G	32ee-	.
.	32cc	.
8.B-	8b-	4.b-
.	32ee-	.
.	32cc	.
{32c	8b-}	.
32B-}	.	.
{32B-	.	.
[32G	.	.
16G}]	{16b-	.
8F	32cc	8.g
.	32b-	.
.	32cc	.
.	32b-	.
16B-	16g	.
16B-	16cc	4.f}
8G	16b-	.
.	16g	.
8F	16f	.
.	16e-	.
16B-	16f}	.
=7	=7	=7
8.B-	{8.cc	8.cc
8.B-	4.b-}	[{4.b-
8c	.	.
16B-	.	.
8F	{8.b-	8.b-]
16B-	.	.
16B-	8cc	8.g
8G	.	.
.	16b-	.
8F	8.g}	8.f}
16B-	.	.
8.G	{8.g	{8.g
8.c	8.b-}	[4.b-
8.B-	[8.b-	.
8e-	4.b-]	4.b-_
16c	.	.
8e-	.	.
16c	.	.
8B-	[{8.b-	8.b-}]
32c	.	.
32B-	.	.
=8	=8	=8
8.B-	4.b-]	8.b-
4.B-	.	8.r
.	8b-	8.r
.	16ee-'}	.
16B-	4.r	4.r
16c	.	.
16B-	.	.
16B-	.	.
8G	.	.
8F	8.r	8.r
16B-	.	.
8.B-	4.r	4.r
4.B-	.	.
.	8.r	8.r
4.B-	4.r	4.r
8.B-	8.r	8.r
=9	=9	=9
8.B-	8.r	8.r
8.c	{8.cc	8.cc
8.e-	8.ee-}	[{8.ee-
8.c	{8.ee-	4.ee-]
8e-	8cc	.
16c	32ee-	.
.	32cc	.
8B-	16b-	8.cc
.	8cc}	.
16e-	.	.
8c	{4.ee-	8.ee-
16B-	.	.
8.c	.	8.cc
8.B-	8cc	[8.b-
.	16ee-'}	.
8e-	[4.b-	4.b-_
16c	.	.
8e-	.	.
16c	.	.
8B-	8.b-_	8.b-_
32c	.	.
32B-	.	.
=10	=10	=10
8.B-	8.b-]	8.b-}]
8.c	{8.cc	{8.cc
8.e-	8.ee-}	8.ee-}
8e-	{8.ee-	{8.cc
16c	.	.
8.B-	8cc	4.b-}
.	32ee-	.
.	32cc	.
8c	8.b-}	.
16B-	.	.
8B-	{16b-	16b-
.	32ee-	{8cc
.	32cc	.
16G	32ee-	.
.	32cc	.
8.B-	8b-	4.b-
.	32ee-	.
.	32cc	.
{32c	8b-}	.
32B-}	.	.
{32B-	.	.
[32G	.	.
16G}]	{16b-	.
8F	32cc	8.g
.	32b-	.
.	32cc	.
.	32b-	.
16B-	16g	.
16B-	16cc	4.f}
8G	16b-	.
.	16g	.
8F	16f	.
.	16e-	.
16B-	16f}	.
=11	=11	=11
8.B-	{16cc	{8.cc
.	16b-	.
.	16g	.
8.G	4.b-}	[4.b-
8c	.	.
16B-	.	.
8.B-	{16b-	4.b-]
.	16cc	.
.	16b-	.
8.B-	8.g	.
{32c	8f	8g
32B-}	.	.
{32B-	.	.
[32G	.	.
16G}]	16g}	16f}
8F	{16cc	{16f
.	16b-	8g
16G	16g	.
8.B-	4.f	8.f
8G	.	8g
16F	.	16f}
8.E-	8.e-	{8.e-
8.c	8.c	8.c
8E-	16g	8g
.	16f	.
16G	16g	16f}
=12	=12	=12
8.F	8.f}	[{4.f
4.F	[{8.f	.
.	8.f_	8.f_
16B-	8.f]	8.f]
16c	.	.
16B-	.	.
16B-	8.g	8.g
8G	.	.
8F	8.b-}	8.b-}
16B-	.	.
8.B-	{48g	{8.g
.	48cc	.
.	48b-	.
.	8g	.
8.G	8.f	4.f
8F	8e-	.
16E-	16c	.
8E-	8e-	8.e-
16C	16c	.
8.BB-	16e-'}	8.c
.	8r	.
8.BB-	{8c	[8.B-
.	[16B-	.
=13	=13	=13
8.BB-	8.B-}]	8.B-}]
8.B-	{48g	8.b-
.	48cc	.
.	48b-	.
.	8g	.
8c	8cc	{8cc
16B-	[16b-	[16b-
8e-	4.b-]	4.b-]
16c	.	.
8e-	.	.
16c	.	.
8B-	8.b-}	8.b-}
32c	.	.
32B-	.	.
8B-	{16b-	16b-
.	32ee-	{8cc
.	32cc	.
16G	32ee-	.
.	32cc	.
8.B-	8b-	4.b-}
.	32ee-	.
.	32cc	.
16c	8b-}	.
8B-	.	.
.	[16b-	.
8G	8b-]	{8.g
16F	{16b-	.
8.E-	8cc	4.f}
.	16b-	.
8F	8.g}	.
16B-	.	.
=14	=14	=14
8.B-	{8.cc	16cc
.	.	{8cc
4.B-	4.b-}	4.b-}
16B-	{8b-	{8.b-
16c	.	.
16B-	32cc	.
.	32b-	.
16B-	8.g	8.g}
8G	.	.
8F	32f	8.f
.	32e-	.
.	8f}	.
16B-	.	.
8.B-	{48g	{16f
.	48cc	.
.	48b-	.
.	8g	8b-
8.G	8.f	8.g
8F	8e-	8f
16E-	16c	16e-}
8E-	8e-	{8.e-
16C	16c	.
8.BB-	16e-}	8.c
.	8r	.
8.BB-	{8c	[8.B-
.	[16B-	.
=15	=15	=15
8.BB-	8.B-}]	8.B-}]
4.B-	8.r	8.r
.	8.r	8.r
8.B-	4.r	4.r
8.c	.	.
8c	8.r	8.r
16B-	.	.
8.B-	4.r	4.r
8.B-	.	.
{32c	8.r	8.r
32B-}	.	.
{32B-	.	.
[32G	.	.
16G}]	.	.
8F	4.r	4.r
16B-	.	.
16B-	.	.
8G	.	.
8F	8.r	8.r
16B-	.	.
=16	=16	=16
8.B-	4.r	4.r
8.c	.	.
8.B-	8.r	8.r
8e-	4.r	4.r
16c	.	.
8e-	.	.
16c	.	.
8B-	8.r	8.r
32c	.	.
32B-	.	.
8.B-	4.r	4.r
4.B-	.	.
.	8.r	8.r
4.B-	4.r	4.r
8.B-	8.r	8.r
=17	=17	=17
8.B-	8.r	8.r
8.B-	{8.cc	{8.b-
{32c	8.b-}	8cc
32B-}	.	.
{32B-	.	.
[32G	.	.
16G}]	.	[16b-
8F	{8b-	4.b-}]
16B-	32ee-	.
.	32cc	.
16B-	8.b-}	.
8G	.	.
{32c	[{8.b-	[8.b-
32B-}	.	.
{32B-	.	.
[32G	.	.
16G}]	.	.
8.B-	4.b-_	4.b-_
4.B-	.	.
.	8.b-_	8.b-_
4.B-	4.b-_	4.b-_
8.B-	16b-]	8.b-_
.	16ff'}	.
.	16r	.
=18	=18	=18
8.B-	8.r	8.b-]
8.B-	{48g	8.b-
.	48cc	.
.	48b-	.
.	8g	.
8c	8cc	{8cc
16B-	[16b-	[16b-
8e-	4.b-_	4.b-_
16c	.	.
8e-	.	.
16c	.	.
8B-	8.b-}]	8.b-}]
32c	.	.
32B-	.	.
8B-	{16b-	16b-
.	32ee-	{8cc
.	32cc	.
16G	32ee-	.
.	32cc	.
8.B-	8b-	4.b-
.	32ee-	.
.	32cc	.
{32c	8b-}	.
32B-}	.	.
{32B-	.	.
[32G	.	.
16G}]	{16b-	.
8F	32cc	8.g
.	32b-	.
.	32cc	.
.	32b-	.
16B-	16g	.
16B-	16cc	4.f}
8G	16b-	.
.	16g	.
8F	16f	.
.	16e-	.
16B-	16f}	.
=19	=19	=19
8.B-	{16cc	16b-
.	16b-	{8cc
.	16g	.
8.G	4.b-}	[4.b-
8c	.	.
16B-	.	.
8.B-	{16b-	4.b-]
.	16cc	.
.	16b-	.
8.B-	8.g	.
{32c	8f	8g
32B-}	.	.
{32B-	.	.
[32G	.	.
16G}]	16g}	16f}
8F	{16cc	16f
.	16b-	{8g
16G	16g	.
8.B-	4.f	8.f
8G	.	8g
16F	.	16f}
8.E-	8.e-	{8.e-
8.c	8.c	8.c
8E-	16g	8g
.	16f	.
16G	16g	16f}
=20	=20	=20
8.F	8.f}	{4.f
4.F	[{8.f	.
.	8.f_	[8.f
16B-	8.f]	8.f]
16c	.	.
16B-	.	.
16B-	8.g	8.g
8G	.	.
8F	8.b-}	8.b-}
16B-	.	.
8.B-	{48g	{8.g
.	48cc	.
.	48b-	.
.	8g	.
8.G	8.f	4.f
8F	8e-	.
16E-	16c	.
8E-	8e-	8.e-
16c	16c	.
8.BB-	16e-'}	8.c
.	8r	.
8.BB-	{8c	8.B-
.	[16B-	.
=21	=21	=21
8.BB-	8.B-}]	8.B-}
8.B-	{48g	8.b-
.	48cc	.
.	48b-	.
.	8g	.
8c	8cc	{8cc
16B-	[16b-	16b-}
8e-	4.b-_	[4.b-
16c	.	.
8e-	.	.
16c	.	.
8B-	8.b-}]	8.b-]
32c	.	.
32B-	.	.
8B-	{16b-	16b-
.	32ee-	{8c
.	32cc	.
16G	32ee-	.
.	32cc	.
8.B-	8b-	4.b-
.	32ee-	.
.	32cc	.
16c	8b-}	.
8B-	.	.
.	[16b-	.
8G	8b-]	8.g
16F	{16b-	.
8.E-	8cc	4.f}
.	16b-	.
8F	8.g}	.
16B-	.	.
=22	=22	=22
8.B-	{8.cc	16cc
.	.	{8cc
4.B-	4.b-}	4.b-}
16B-	{8b-	{8.b-
16c	.	.
16B-	32cc	.
.	32b-	.
16B-	8.g	8.g}
8G	.	.
8F	32f	8.f
.	32e-	.
.	8f}	.
16B-	.	.
8.B-	{48g	{16f
.	48cc	.
.	48b-	.
.	8g	8b-
8.G	8.f	8.g
8F	8e-	8f
16E-	16c	16e-}
8E-	8e-	{8.e-
16C	16c	.
8.BB-	16e-'}	8.c
.	8r	.
8.BB-	{8c	[8.B-
.	[16B-	.
=23	=23	=23
8.BB-	8.B-}]	8.B-}]
4.B-	8.r	8.r
.	8.r	8.r
8.B-	4.r	4.r
8.c	.	.
8c	8.r	8.r
16B-	.	.
8.B-	4.r	4.r
8.B-	.	.
{32c	8.r	8.r
32B-}	.	.
{32B-	.	.
[32G	.	.
16G}]	.	.
8F	4.r	4.r
16B-	.	.
16B-	.	.
8G	.	.
8F	8.r	8.r
16B-	.	.
=24	=24	=24
8.B-	4.r	4.r
8.c	.	.
8.B-	8.r	8.r
8e-	4.r	4.r
16c	.	.
8e-	.	.
16c	.	.
8B-	8.r	8.r
32c	.	.
32B-	.	.
8.B-	4.r	4.r
4.B-	.	.
.	8.r	8.r
4.B-	4.r	4.r
8.B-	8.r	8.r
=25	=25	=25
8.B-	8.r	8.r
8.E-	{8f	8.e-
.	16e-	.
8G	8.f	[{8.g
16F	.	.
8.G	8.g	8.g]
8.F	4.f}	4.f}
8.B-	.	.
8B-	{16cc	16f
.	16b-	{8g
16G	16g	.
8.B-	8f	4.f}
.	16g	.
{32c	[8.f	.
32B-}	.	.
{32B-	.	.
[32G	.	.
16G}]	.	.
8F	4.f_	[4.f
16B-	.	.
16B-	.	.
8G	.	.
8F	8.f}]	8.f]
16B-	.	.
=26	=26	=26
8.B-	{8.g	{8.cc
8.G	4.b-}	8.b-}
8c	.	[{8.b-
16B-	.	.
8.B-	{16b-	4.b-]
.	16cc	.
.	16b-	.
8.B-	8.g	.
{32c	8f	8g
32B-}	.	.
{32B-	.	.
[32G	.	.
16G}]	16g}	16f}
8F	{16c	16f
.	16b-	{8b-
16G	16g	.
8.B-	4.f	8.g
8G	.	8f
16F	.	[16e-
8.E-	8.e-	8.e-]
8.C	8.c	8.c
8E-	16g	8g
.	16f	.
16G	16g	16f}
=27	=27	=27
8.F	8.f}	[{4.f
4.F	[8.f	.
.	8.f_	8.f_
16B-	4.f]	8.f]
16c	.	.
16B-	.	.
16B-	.	8.g
8G	.	.
8F	{8f	8.b-}
16B-	16g	.
8.B-	16cc	{8.g
.	16b-	.
.	16g	.
8.G	8f	4.f
.	16e-	.
8F	16f	.
.	16e-	.
16E-	16c	.
8E-	8e-	8.e-
16C	16c	.
8.BB-	16e-'}	8.c
.	8r	.
8.BB-	{8c	[8.B-
.	[16B-	.
=28	=28	=28
8.BB-	8.B-}]	8.B-}]
4.B-	8.r	8.r
.	8.r	8.r
16B-	4.r	4.r
16c	.	.
16B-	.	.
16B-	.	.
8G	.	.
8F	8.r	8.r
16B-	.	.
8.B-	4.r	4.r
4.B-	.	.
.	8.r	8.r
4.B-	4.r	4.r
8G	{48g	8.r
.	48cc	.
.	48b-	.
.	8g	.
16F	.	.
=29	=29	=29
8.F	8.f}	8.r
8.F	{8.f	8.f
8G	8g	{8g
16F	16f	16f
8.E-	8.e-	8.e-
8.C	8.c	8.c
8E-	16g	8g
.	16f	.
16G	16g	16f}
8.F	8.f}	16f
.	.	{8g
4.F	[8.f	4.f}
.	8.f_	.
16B-	4.f]	{8.f
16c	.	.
16B-	.	.
16B-	.	8.g
8G	.	.
8F	{8f	8.b-}
16B-	16g	.
=30	=30	=30
8.B-	16cc	{8.g
.	16b-	.
.	16g	.
8.G	8f	4.f
.	16e-	.
8F	16f	.
.	16e-	.
16E-	16c	.
8E-	8e-	8.e-
16C	16c	.
8.BB-	16e-'}	8.c
.	8r	.
8.BB-	{8c	[8.B-
.	[16B-	.
8.BB-	8.B-}]	8.B-}]
4.B-	8.r	8.r
.	8.r	8.r
4.B-	4.r	4.r
8.B-	8.r	8.r
=31	=31	=31
8.B-	8.r	8.r
8.G	4.g	8.g
8.G	.	[{8.g
8.G	{4.g	8.g]
8.F	.	4.f}
8.B-	8f	.
.	16g	.
8B-	16cc	8.g
.	16b-	.
16G	16g	.
8.B-	4.f}	{8.f
8c	.	8g
16B-	.	16f
8G	{8.e-	8.e-
16F	.	.
8.E-	8.c	8.c
8F	16g	8g
.	16f	.
16G	16g	16f}
=32	=32	=32
8.F	8.f}	[{4.f
4.F	[8.f	.
.	8.f_	8.f_
8F	4.f]	8.f]
16G	.	.
8.B-	.	8.g
8c	[{8.f	8.b-}
16B-	.	.
8.B-	4.f_	[4.b-
4.B-	.	.
.	8f]	8.b-_
.	16a-'}	.
4.B-	4.r	4.b-_
8.B-	8.r	8.b-_
=33	=33	=33
8.B-	8.r	8.b-]
8.B-	{48g	8.b-
.	48cc	.
.	48b-	.
.	8g	.
8c	8cc	{8cc
16B-	[16b-	[16b-
8e-	4.b-_	4.b-_
16c	.	.
8e-	.	.
16c	.	.
8B-	8.b-}]	8.b-}]
32c	.	.
32B-	.	.
8B-	{16b-	16b-
.	32ee-	.
.	32cc	{8cc
16G	32ee-	.
.	32cc	.
8.B-	8b-	4.b-}
.	32ee-	.
.	32cc	.
16c	8b-}	.
8B-	.	.
.	[16b-	.
8G	8b-]	8.g
16F	{16b-	.
8.E-	8c	4.f
.	16b-	.
8F	8.g}	.
16B-	.	.
=34	=34	=34
8.B-	{8.cc	16cc
.	.	{8cc
4.B-	4.b-}	4.b-}
16B-	{8b-	{8.b-
16c	.	.
16B-	32cc	.
.	32b-	.
16B-	8.g	8.g}
8G	.	.
8F	32f	8.f
.	32e-	.
.	8f}	.
16B-	.	.
8.B-	{48g	{16f
.	48cc	.
.	48a	.
.	8g	8b-
8.G	8.f	8.g
8F	8e-	8f
16e-	16c	[16e-
8e-	8e-	8.e-]
16C	16c	.
8.BB-	16e-'}	8.c}
.	8r	.
8.BB-	{8c	[8.B-
.	[16B-	.
=35	=35	=35
8.BB-	4.B-_	8.B-]
4.B-	.	8.r
.	8.B-}]	8.r
8.C	{16c	4.r
.	8e-	.
8.E-	8.f	.
8.E-	8g}	8.r
.	{16g	.
8.F	16cc	8.r
.	16b-	.
.	16g	.
8.G	4.f	8.g
8.G	.	{8.g
8B-	8.e-	4.f
16G	.	.
8.F	8.c	.
16G	16g	8.e-}
16F	16f	.
16E-	16g	.
=36	=36	=36
8.F	8.f}	8.f
4.F	[8.f	[{4.f
.	8.f_	.
16B-	4.f]	4.f]
16c	.	.
16B-	.	.
16B-	.	.
8G	.	.
8F	{8f	8.g}
16B-	16g	.
8.B-	16cc	16cc
.	16b-	{8b-
.	16g	.
8.G	8.f	8.g
8F	8e-	8f
16E-	16c	[16e-
4.E-	4.e-}	4.e-_
[8.E-	[8.e-	8.e-_
=37	=37	=37
8.E-]	8.e-]	8.e-}]
8.C	{8.c	8.c
8.E-	[8.e-	[{8.e-
8E-	8e-]	4.e-]
16F	16c	.
8.E-	16e-'}	.
.	8r	.
8.C	{8c	8.c}
.	[16B-	.
8.BB-	8.B-}]	[{4.B-
4.BB-	{4.B-	.
.	.	8.B-_
4.BB-	4.B-	4.B-]
8G	8g	8g
16F	16f	16f}
=38	=38	=38
8.F	16cc	8.f
.	16b-	.
.	16g	.
4.F	8f	[{4.f
.	16g	.
.	[8.f	.
16B-	4.f}]	8.f]
16c	.	.
16B-	.	.
16B-	.	8.g
8G	.	.
8F	{8f	8.b-}
16B-	16g	.
8.B-	16cc	{8.g
.	16b-	.
.	16g	.
8.G	8f	4.f
.	16e-	.
8F	16f	.
.	16e-	.
16E-	16c	.
8E-	8e-	8.e-
16C	16c	.
8.BB-	16e-'}	8.c}
.	8r	.
8.BB-	{8c	[8.B-
.	[16B-	.
=39	=39	=39
8.BB-	8.B-}]	8.B-]
4.B-	8.r	8.r
.	8.r	8.r
8.B-	4.r	4.r
8.c	.	.
8c	8.r	8.r
16B-	.	.
8.B-	4.r	4.r
8.B-	.	.
32c	8.r	8.r
32B-	.	.
32B-	.	.
[32G	.	.
16G]	.	.
8F	4.r	4.r
16B-	.	.
16B-	.	.
8G	.	.
8F	8.r	8.r
16B-	.	.
=40	=40	=40
8.B-	4.r	4.r
8.c	.	.
8.B-	8.r	8.r
8e-	4.r	4.r
16c	.	.
8e-	.	.
16c	.	.
8B-	8.r	8.r
32c	.	.
32B-	.	.
8.B-	4.r	4.r
4.B-	.	.
.	8.r	8.r
4.B-	4.r	4.r
8.B-	8.r	8.r
=41	=41	=41
8.B-	8.r	8.r
====	====	====
*-	*-	*-
